X: 16
T: 'TWAS WITHIN A MILE
S: "COUNTRY DANCES OF TODAY 2", CDSS, May Gadd ed., 1951 p.16
R: shottish
Z: 2010 John Chambers <jc:trillian.mit.edu>
M: 4/4
L: 1/16
K: D
"A"[|]fg |\
"D"a2af d2fd "G"Bdec "D"A2FG | "D"A3B ABde "A"f2e2 "A7"e2fg |
"D"a2af d2fd "G"Bdec "D"A2FG | "D"A3B "A7"ABde "D"f2d2 d2 :|
"B"|: de |\
"D"f6 ef "Em"g6 fg | "D"a2a2 "Em"gage "A"f2e2 "A7"e2fg |
"D"a2af d2fd "Em"Bdec "D"A2FG | "D"A3B "A7"ABde "D"f2d2 d2 :|


%%sep 5 1 500

%%sep 1 1 500

